X:90
T:Friendly Visit
R:Hornpipe
M:4/4
L:1/8
K:G
BA|:(3GFG DG BGBd|(3cBc AB cdef|g2dg ecAG|FGAB cAFD|
  |(3GFG DG BGBd|(3cBc AB cdef|gdBG FAdc|1 B2G2 G2 BA:|2 B2G2 G2 (3GBd|
  |:g2dB GBdg|e2cA FGAg|f2ed ^cdeg|f2 (3efe dcBA|
  |(3GFG DG BGBd|(3cBc AB cdef|gdBG FAdc|1 B2G2 G2 (3GBd:|2 B2G2 G2 BA|
